views/img/maestro.svg

<?xml version="1.0" encoding="UTF-8"?>
<svg width="75px" height="48px" viewBox="0 0 75 48" version="1.1" xmlns="http://www.w3.org/2000/svg" xmlns:xlink="http://www.w3.org/1999/xlink">
    <title>Logo_maestro</title>
    <g id="Logo_maestro" stroke="none" stroke-width="1" fill="none" fill-rule="evenodd">
        <rect id="Rectangle-Copy-2" stroke="#888888" fill="#FFFFFF" x="0.5" y="0.5" width="74" height="47" rx="6"></rect>
        <g id="Maestro_2016" transform="translate(13.000000, 5.000000)" fill-rule="nonzero">
            <g id="Group" transform="translate(48.337838, 24.337838) scale(-1, 1) rotate(-180.000000) translate(-48.337838, -24.337838) translate(47.675676, 23.837838)" fill="#0099DF">
                <path d="M1.32432432,6.80011603e-15 L1.32432432,0.61 L1.16540541,0.61 L0.981499235,0.191 L0.798592555,0.61 L0.638674146,0.61 L0.638674146,6.80011603e-15 L0.751616522,6.80011603e-15 L0.751616522,0.46 L0.923528812,0.063 L1.04046915,0.063 L1.21238144,0.461 L1.21238144,6.80011603e-15 L1.32432432,6.80011603e-15 Z M0.315838858,4.41313652e-15 L0.315838858,0.506 L0.519734829,0.506 L0.519734829,0.609 L-1.41290883e-14,0.609 L-1.41290883e-14,0.506 L0.203895971,0.506 L0.203895971,4.41313652e-15 L0.315838858,4.41313652e-15 Z" id="Shape"></path>
            </g>
            <polygon id="Path" fill="#6C6BBD" points="31.1216216 27.1486486 17.8783784 27.1486486 17.8783784 3.31081081 31.1216216 3.31081081"></polygon>
            <g id="Group" transform="translate(12.250000, 15.229730) scale(-1, 1) rotate(-180.000000) translate(-12.250000, -15.229730) " fill="#EB001B">
                <path d="M18.7165481,15.2297297 C18.7165481,20.08748 20.978131,24.4146249 24.5,27.2032079 C21.9245491,29.2423592 18.6741856,30.4594595 15.1417259,30.4594595 C6.77897198,30.4594595 -1.88197806e-14,23.6409868 -1.88197806e-14,15.2297297 C-1.88197806e-14,6.81847268 6.77897198,9.40989028e-15 15.1417259,9.40989028e-15 C18.6741856,9.40989028e-15 21.9245491,1.21710028 24.5,3.25625158 C20.978131,6.04483455 18.7165481,10.3719795 18.7165481,15.2297297" id="Path"></path>
            </g>
            <g id="Group" transform="translate(36.750000, 15.229730) scale(-1, 1) rotate(-180.000000) translate(-36.750000, -15.229730) translate(24.500000, 0.000000)" fill="#0099DF">
                <path d="M24.5,15.2297297 C24.5,6.81847268 17.7212944,0 9.35886907,0 C5.82654826,0 2.57631248,1.21710028 0,3.25625158 C3.52269334,6.04483455 5.78418736,10.3719795 5.78418736,15.2297297 C5.78418736,20.08748 3.52269334,24.4146249 0,27.2032079 C2.57631248,29.2423592 5.82654826,30.4594595 9.35886907,30.4594595 C17.7212944,30.4594595 24.5,23.6409868 24.5,15.2297297" id="Path"></path>
            </g>
            <g id="Group" transform="translate(24.500000, 35.756757) scale(-1, 1) rotate(-180.000000) translate(-24.500000, -35.756757) translate(7.945946, 33.108108)" fill="#231F20">
                <path d="M27.710972,4.19337702 C27.8879431,4.19337702 28.1422787,4.16012641 28.3366568,4.08507503 L28.0658813,3.2718601 C27.8802067,3.34691147 27.6945321,3.37161193 27.5165939,3.37161193 C26.942163,3.37161193 26.6549475,3.00680523 26.6549475,2.35129319 L26.6549475,0.126352321 L25.7758942,0.126352321 L25.7758942,4.09362519 L26.646244,4.09362519 L26.646244,3.61196634 C26.8744691,3.96062275 27.204235,4.19337702 27.710972,4.19337702 M24.4636,3.30511071 L23.0275228,3.30511071 L23.0275228,1.51242778 C23.0275228,1.11437047 23.170647,0.848365582 23.6106572,0.848365582 C23.8388823,0.848365582 24.1260977,0.923416961 24.3872027,1.0725697 L24.6405712,0.334406142 C24.3620592,0.143452635 23.9230161,0.0266004886 23.5429633,0.0266004886 C22.5033788,0.0266004886 22.140733,0.574760557 22.140733,1.49627748 L22.140733,3.30511071 L21.32067,3.30511071 L21.32067,4.09362519 L22.140733,4.09362519 L22.140733,5.2972973 L23.0275228,5.2972973 L23.0275228,4.09362519 L24.4636,4.09362519 L24.4636,3.30511071 Z M13.217713,2.45864516 C13.3115174,3.03150568 13.6654596,3.42196285 14.2911445,3.42196285 C14.8568719,3.42196285 15.2204847,3.07330645 15.313322,2.45864516 L13.217713,2.45864516 Z M16.2262223,2.10998875 C16.2175188,3.34691147 15.4400063,4.19337702 14.3075844,4.19337702 C13.1248757,4.19337702 12.2970763,3.34691147 12.2970763,2.10998875 C12.2970763,0.8493156 13.1587226,0.027550506 14.3675418,0.027550506 C14.9758197,0.027550506 15.5328436,0.176703246 16.0231406,0.583310714 L15.5918339,1.22267246 C15.2543316,0.956667571 14.8230249,0.807514832 14.4178287,0.807514832 C13.8521013,0.807514832 13.3366608,1.06496956 13.2099765,1.77843267 L16.2088153,1.77843267 C16.2175188,1.88673465 16.2262223,1.99408663 16.2262223,2.10998875 M20.0867074,3.08090659 C19.8420424,3.23100935 19.3440088,3.42196285 18.8285683,3.42196285 C18.3469747,3.42196285 18.0597593,3.24715964 18.0597593,2.9564543 C18.0597593,2.69139943 18.3634147,2.61634806 18.7434674,2.56694715 L19.1573671,2.50899608 C20.0364205,2.38359378 20.568301,2.01878708 20.568301,1.32147427 C20.568301,0.5662104 19.8923292,0.0266004886 18.7270275,0.0266004886 C18.0674957,0.0266004886 17.4592179,0.192853542 16.9776243,0.541509946 L17.391524,1.2141223 C17.687443,0.989918182 18.1274532,0.798964675 18.735731,0.798964675 C19.3353053,0.798964675 19.6563677,0.972817868 19.6563677,1.28062352 C19.6563677,1.50387762 19.4281427,1.62927993 18.9465491,1.69483113 L18.5326494,1.75278219 C17.6284526,1.8781845 17.1381555,2.27624181 17.1381555,2.92320369 C17.1381555,3.71171817 17.7976873,4.19337702 18.8198648,4.19337702 C19.4619896,4.19337702 20.045124,4.05182442 20.4667601,3.7782194 L20.0867074,3.08090659 Z M30.9225629,3.37351196 C30.7417236,3.37351196 30.574423,3.34216139 30.4187271,3.28041025 C30.2639982,3.2177091 30.1295775,3.1303075 30.016432,3.01820544 C29.9032866,2.90610338 29.8143175,2.7712009 29.7495248,2.61444802 C29.6847321,2.45769514 29.6528192,2.28479197 29.6528192,2.09668851 C29.6528192,1.90763504 29.6847321,1.73568188 29.7495248,1.578929 C29.8143175,1.42217612 29.9032866,1.28727364 30.016432,1.17517158 C30.1295775,1.06306953 30.2639982,0.97566792 30.4187271,0.912966769 C30.574423,0.850265617 30.7417236,0.819865059 30.9225629,0.819865059 C31.1034023,0.819865059 31.2716699,0.850265617 31.4263988,0.912966769 C31.5820947,0.97566792 31.7174825,1.06306953 31.8306279,1.17517158 C31.9457075,1.28727364 32.0346766,1.42217612 32.1004364,1.578929 C32.1652291,1.73568188 32.1971419,1.90763504 32.1971419,2.09668851 C32.1971419,2.28479197 32.1652291,2.45769514 32.1004364,2.61444802 C32.0346766,2.7712009 31.9457075,2.90610338 31.8306279,3.01820544 C31.7174825,3.1303075 31.5820947,3.2177091 31.4263988,3.28041025 C31.2716699,3.34216139 31.1034023,3.37351196 30.9225629,3.37351196 M30.9225629,4.19337702 C31.2358889,4.19337702 31.5260055,4.14017604 31.7929128,4.03282407 C32.0598201,3.92642212 32.2909463,3.77916941 32.4853244,3.59201598 C32.6806696,3.40486254 32.8324973,3.18350847 32.9427416,2.9289038 C33.052986,2.6733491 33.1081081,2.39594401 33.1081081,2.09668851 C33.1081081,1.79743301 33.052986,1.52002792 32.9427416,1.26447323 C32.8324973,1.00986855 32.6806696,0.787564465 32.4853244,0.600411028 C32.2909463,0.41325759 32.0598201,0.266954903 31.7929128,0.159602931 C31.5260055,0.0532009772 31.2358889,8.40168775e-17 30.9225629,8.40168775e-17 C30.609237,8.40168775e-17 30.3191204,0.0532009772 30.0522131,0.159602931 C29.7853058,0.266954903 29.5561137,0.41325759 29.3627026,0.600411028 C29.1692915,0.787564465 29.0174638,1.00986855 28.9072195,1.26447323 C28.7969752,1.52002792 28.7418531,1.79743301 28.7418531,2.09668851 C28.7418531,2.39594401 28.7969752,2.6733491 28.9072195,2.9289038 C29.0174638,3.18350847 29.1692915,3.40486254 29.3627026,3.59201598 C29.5561137,3.77916941 29.7853058,3.92642212 30.0522131,4.03282407 C30.3191204,4.14017604 30.609237,4.19337702 30.9225629,4.19337702 M8.08458301,2.10998875 C8.08458301,2.80730156 8.54973665,3.38016208 9.30984218,3.38016208 C10.0361008,3.38016208 10.5263978,2.83200202 10.5263978,2.10998875 C10.5263978,1.38797549 10.0361008,0.840765443 9.30984218,0.840765443 C8.54973665,0.840765443 8.08458301,1.41267595 8.08458301,2.10998875 M11.3541973,2.10998875 L11.3541973,4.09362519 L10.476111,4.09362519 L10.476111,3.61196634 C10.196632,3.9691729 9.77499582,4.19337702 9.20056492,4.19337702 C8.06814306,4.19337702 7.18135328,3.32221102 7.18135328,2.10998875 C7.18135328,0.898716507 8.06814306,0.0266004886 9.20056492,0.0266004886 C9.77499582,0.0266004886 10.196632,0.250804607 10.476111,0.608011168 L10.476111,0.126352321 L11.3541973,0.126352321 L11.3541973,2.10998875 Z M6.40384075,0.126352321 L6.40384075,2.61634806 C6.40384075,3.55401528 5.79556291,4.18482686 4.81593581,4.19337702 C4.30049529,4.20192718 3.76764777,4.04422428 3.39629851,3.48751406 C3.11778656,3.92737214 2.67777636,4.19337702 2.06079502,4.19337702 C1.63045538,4.19337702 1.20785217,4.06892474 0.878086288,3.6043662 L0.878086288,4.09362519 L-1.88197806e-14,4.09362519 L-1.88197806e-14,0.126352321 L0.886789787,0.126352321 L0.886789787,2.32564272 C0.886789787,3.01440537 1.27554605,3.38016208 1.87512039,3.38016208 C2.45825478,3.38016208 2.75417373,3.00680523 2.75417373,2.33419287 L2.75417373,0.126352321 L3.64096352,0.126352321 L3.64096352,2.32564272 C3.64096352,3.01440537 4.04712678,3.38016208 4.62929412,3.38016208 C5.22983551,3.38016208 5.51705096,3.00680523 5.51705096,2.33419287 L5.51705096,0.126352321 L6.40384075,0.126352321 Z" id="Shape"></path>
            </g>
            <g id="Group" transform="translate(42.216216, 38.243243) scale(-1, 1) rotate(-180.000000) translate(-42.216216, -38.243243) translate(41.716216, 37.743243)" fill="#231F20">
                <path d="M0.354,0.537 L0.354,0.434 L0.449,0.434 C0.47,0.434 0.488,0.439 0.5,0.447 C0.513,0.455 0.52,0.469 0.52,0.486 C0.52,0.503 0.513,0.516 0.5,0.524 C0.488,0.533 0.47,0.537 0.449,0.537 L0.354,0.537 Z M0.45,0.609 C0.499,0.609 0.537,0.598 0.564,0.576 C0.591,0.554 0.604,0.524 0.604,0.486 C0.604,0.454 0.594,0.428 0.572,0.407 C0.551,0.387 0.52,0.374 0.481,0.369 L0.607,0.224 L0.509,0.224 L0.392,0.368 L0.354,0.368 L0.354,0.224 L0.272,0.224 L0.272,0.609 L0.45,0.609 Z M0.425,0.092 C0.47,0.092 0.512,0.1 0.55,0.117 C0.589,0.134 0.623,0.157 0.652,0.186 C0.681,0.215 0.704,0.249 0.721,0.289 C0.737,0.328 0.746,0.37 0.746,0.415 C0.746,0.46 0.737,0.502 0.721,0.541 C0.704,0.58 0.681,0.615 0.652,0.644 C0.623,0.673 0.589,0.696 0.55,0.712 C0.512,0.729 0.47,0.737 0.425,0.737 C0.38,0.737 0.337,0.729 0.298,0.712 C0.258,0.696 0.223,0.673 0.194,0.644 C0.165,0.615 0.142,0.58 0.126,0.541 C0.109,0.502 0.101,0.46 0.101,0.415 C0.101,0.37 0.109,0.328 0.126,0.289 C0.142,0.249 0.165,0.215 0.194,0.186 C0.223,0.157 0.258,0.134 0.298,0.117 C0.337,0.1 0.38,0.092 0.425,0.092 M0.425,0.83 C0.484,0.83 0.538,0.819 0.589,0.797 C0.641,0.776 0.685,0.746 0.724,0.708 C0.762,0.671 0.792,0.627 0.814,0.576 C0.836,0.526 0.847,0.472 0.847,0.415 C0.847,0.358 0.836,0.304 0.814,0.254 C0.792,0.204 0.762,0.16 0.724,0.123 C0.685,0.085 0.641,0.055 0.589,0.033 C0.538,0.011 0.484,0 0.425,0 C0.365,0 0.31,0.011 0.258,0.033 C0.206,0.055 0.161,0.085 0.123,0.123 C0.085,0.16 0.055,0.204 0.033,0.254 C0.011,0.304 0,0.358 0,0.415 C0,0.472 0.011,0.526 0.033,0.576 C0.055,0.627 0.085,0.671 0.123,0.708 C0.161,0.746 0.206,0.776 0.258,0.797 C0.31,0.819 0.365,0.83 0.425,0.83" id="Shape"></path>
            </g>
        </g>
    </g>
</svg>

<?xml version="1.0" encoding="UTF-8" standalone="no"?>
<svg
   xmlns:dc="http://purl.org/dc/elements/1.1/"
   xmlns:cc="http://creativecommons.org/ns#"
   xmlns:rdf="http://www.w3.org/1999/02/22-rdf-syntax-ns#"
   xmlns:svg="http://www.w3.org/2000/svg"
   xmlns="http://www.w3.org/2000/svg"
   xmlns:sodipodi="http://sodipodi.sourceforge.net/DTD/sodipodi-0.dtd"
   xmlns:inkscape="http://www.inkscape.org/namespaces/inkscape"
   width="35"
   height="22"
   viewBox="0 0 35 22"
   version="1.1"
   id="svg201"
   sodipodi:docname="Logo_maestro.svg"
   inkscape:version="1.0.2 (e86c870879, 2021-01-15)">
  <metadata
     id="metadata207">
    <rdf:RDF>
      <cc:Work
         rdf:about="">
        <dc:format>image/svg+xml</dc:format>
        <dc:type
           rdf:resource="http://purl.org/dc/dcmitype/StillImage" />
        <dc:title>Logo_maestro</dc:title>
      </cc:Work>
    </rdf:RDF>
  </metadata>
  <defs
     id="defs205" />
  <sodipodi:namedview
     pagecolor="#ffffff"
     bordercolor="#666666"
     borderopacity="1"
     objecttolerance="10"
     gridtolerance="10"
     guidetolerance="10"
     inkscape:pageopacity="0"
     inkscape:pageshadow="2"
     inkscape:window-width="1920"
     inkscape:window-height="1006"
     id="namedview203"
     showgrid="false"
     inkscape:zoom="15.253333"
     inkscape:cx="37.5"
     inkscape:cy="24"
     inkscape:window-x="0"
     inkscape:window-y="0"
     inkscape:window-maximized="1"
     inkscape:current-layer="svg201" />
  <title
     id="title177">Logo_maestro</title>
  <g
     id="Logo_maestro"
     stroke="none"
     stroke-width="1"
     fill="none"
     fill-rule="evenodd"
     transform="matrix(0.46579015,0,0,0.45367422,0.03286948,-0.04991326)">
    <rect
       id="Rectangle-Copy-2"
       stroke="#888888"
       fill="#ffffff"
       x="0.5"
       y="0.5"
       width="74"
       height="47"
       rx="6" />
    <g
       id="Maestro_2016"
       transform="translate(13,5)"
       fill-rule="nonzero">
      <g
         id="Group"
         transform="matrix(1,0,0,-1,47.675676,24.837838)"
         fill="#0099df">
        <path
           d="M 1.3243243,0 V 0.61 H 1.1654054 L 0.98149923,0.191 0.79859255,0.61 H 0.63867415 V 0 H 0.75161652 V 0.46 L 0.92352881,0.063 H 1.0404691 L 1.2123814,0.461 V 0 Z M 0.31583886,0 V 0.506 H 0.51973483 V 0.609 H 0 V 0.506 H 0.20389597 V 0 Z"
           id="Shape" />
      </g>
      <polygon
         id="Path"
         fill="#6c6bbd"
         points="31.121622,27.148649 17.878378,27.148649 17.878378,3.3108108 31.121622,3.3108108 " />
      <g
         id="g185"
         transform="matrix(1,0,0,-1,0,30.45946)"
         fill="#eb001b">
        <path
           d="m 18.716548,15.22973 c 0,4.85775 2.261583,9.184895 5.783452,11.973478 -2.575451,2.039151 -5.825814,3.256251 -9.358274,3.256251 C 6.778972,30.459459 0,23.640987 0,15.22973 0,6.8184727 6.778972,0 15.141726,0 18.674186,0 21.924549,1.2171003 24.5,3.2562516 20.978131,6.0448345 18.716548,10.37198 18.716548,15.22973"
           id="path183" />
      </g>
      <g
         id="g189"
         transform="matrix(1,0,0,-1,24.5,30.45946)"
         fill="#0099df">
        <path
           d="M 24.5,15.22973 C 24.5,6.8184727 17.721294,0 9.3588691,0 5.8265483,0 2.5763125,1.2171003 0,3.2562516 3.5226933,6.0448345 5.7841874,10.37198 5.7841874,15.22973 5.7841874,20.08748 3.5226933,24.414625 0,27.203208 2.5763125,29.242359 5.8265483,30.459459 9.3588691,30.459459 17.721294,30.459459 24.5,23.640987 24.5,15.22973"
           id="path187" />
      </g>
      <g
         id="g193"
         transform="matrix(1,0,0,-1,7.945946,38.405406)"
         fill="#231f20">
        <path
           d="m 27.710972,4.193377 c 0.176971,0 0.431307,-0.033251 0.625685,-0.108302 L 28.065881,3.2718601 c -0.185674,0.075051 -0.371349,0.099752 -0.549287,0.099752 -0.574431,0 -0.861647,-0.3648067 -0.861647,-1.0203187 V 0.12635232 H 25.775894 V 4.0936252 h 0.87035 V 3.6119663 c 0.228225,0.3486565 0.557991,0.5814107 1.064728,0.5814107 M 24.4636,3.3051107 H 23.027523 V 1.5124278 c 0,-0.3980573 0.143124,-0.66406222 0.583134,-0.66406222 0.228225,0 0.515441,0.0750514 0.776546,0.22420412 l 0.253368,-0.73816356 c -0.278512,-0.1909535 -0.717555,-0.30780565 -1.097608,-0.30780565 -1.039584,0 -1.40223,0.54816007 -1.40223,1.46967701 V 3.3051107 H 21.32067 v 0.7885145 h 0.820063 v 1.2036721 h 0.88679 V 4.0936252 H 24.4636 Z M 13.217713,2.4586452 c 0.0938,0.5728605 0.447747,0.9633177 1.073432,0.9633177 0.565727,0 0.92934,-0.3486564 1.022177,-0.9633177 z m 3.008509,-0.3486565 c -0.0087,1.2369228 -0.786216,2.0833883 -1.918638,2.0833883 -1.182708,0 -2.010508,-0.8464655 -2.010508,-2.0833883 0,-1.2606731 0.861647,-2.08243819 2.070466,-2.08243819 0.608278,0 1.165302,0.14915274 1.655599,0.5557602 L 15.591834,1.2226725 C 15.254332,0.95666757 14.823025,0.80751483 14.417829,0.80751483 c -0.565728,0 -1.081168,0.25745477 -1.207852,0.97091787 h 2.998838 c 0.0087,0.1083019 0.01741,0.2156539 0.01741,0.331556 m 3.860485,0.9709179 c -0.244665,0.1501028 -0.742698,0.3410563 -1.258139,0.3410563 -0.481593,0 -0.768809,-0.1748033 -0.768809,-0.4655086 0,-0.2650549 0.303656,-0.3401062 0.683708,-0.3895072 l 0.4139,-0.057951 c 0.879053,-0.1254023 1.410934,-0.490209 1.410934,-1.1875218 0,-0.7552639 -0.675972,-1.29487381 -1.841274,-1.29487381 -0.659531,0 -1.267809,0.16625305 -1.749403,0.51490946 l 0.4139,0.67261235 c 0.295919,-0.22420412 0.735929,-0.41515762 1.344207,-0.41515762 0.599574,0 0.920637,0.17385319 0.920637,0.48165882 0,0.2232541 -0.228225,0.3486564 -0.709819,0.4142076 l -0.4139,0.057951 c -0.904196,0.1254023 -1.394494,0.5234596 -1.394494,1.1704215 0,0.7885145 0.659532,1.2701733 1.68171,1.2701733 0.642125,0 1.225259,-0.1415526 1.646895,-0.4151576 z M 30.922563,3.373512 c -0.180839,0 -0.34814,-0.031351 -0.503836,-0.093102 -0.154729,-0.062701 -0.28915,-0.1501028 -0.402295,-0.2622049 -0.113145,-0.112102 -0.202114,-0.2470045 -0.266907,-0.4037574 -0.06479,-0.1567529 -0.09671,-0.329656 -0.09671,-0.5177595 0,-0.1890535 0.03191,-0.3610066 0.09671,-0.5177595 0.06479,-0.1567529 0.153762,-0.2916554 0.266907,-0.4037574 0.113145,-0.1121021 0.247566,-0.19950368 0.402295,-0.26220483 0.155696,-0.0627011 0.322997,-0.0931017 0.503836,-0.0931017 0.180839,0 0.349107,0.0304006 0.503836,0.0931017 0.155696,0.0627011 0.291083,0.15010273 0.404229,0.26220483 0.115079,0.112102 0.204049,0.2470045 0.269808,0.4037574 0.06479,0.1567529 0.09671,0.328706 0.09671,0.5177595 0,0.1881035 -0.03191,0.3610066 -0.09671,0.5177595 -0.06576,0.1567529 -0.154729,0.2916554 -0.269808,0.4037574 C 31.717482,3.1303072 31.582095,3.2177088 31.426399,3.28041 31.27167,3.342161 31.103402,3.373512 30.922563,3.373512 m 0,0.819865 c 0.313326,0 0.603442,-0.053201 0.87035,-0.1605529 0.266907,-0.106402 0.498033,-0.2536547 0.692411,-0.4408081 0.195346,-0.1871535 0.347173,-0.4085075 0.457418,-0.6631122 0.110244,-0.2555547 0.165366,-0.5329598 0.165366,-0.8322153 0,-0.2992555 -0.05512,-0.5766606 -0.165366,-0.8322153 C 32.832497,1.0098685 32.68067,0.78756446 32.485324,0.60041103 32.290946,0.41325759 32.05982,0.2669549 31.792913,0.15960293 31.526005,0.05320098 31.235889,0 30.922563,0 30.609237,0 30.31912,0.05320098 30.052213,0.15960293 29.785306,0.2669549 29.556114,0.41325759 29.362703,0.60041103 29.169291,0.78756446 29.017464,1.0098685 28.907219,1.2644732 28.796975,1.5200279 28.741853,1.797433 28.741853,2.0966885 c 0,0.2992555 0.05512,0.5766606 0.165366,0.8322153 0.110245,0.2546047 0.262072,0.4759587 0.455484,0.6631122 0.193411,0.1871534 0.422603,0.3344061 0.68951,0.4408081 0.266907,0.1073519 0.557024,0.1605529 0.87035,0.1605529 M 8.084583,2.1099887 c 0,0.6973129 0.4651537,1.2701734 1.2252592,1.2701734 0.7262588,0 1.2165558,-0.5481601 1.2165558,-1.2701734 0,-0.7220132 -0.490297,-1.26922326 -1.2165558,-1.26922326 -0.7601055,0 -1.2252592,0.57191046 -1.2252592,1.26922326 m 3.269614,0 V 4.0936252 H 10.476111 V 3.6119663 C 10.196632,3.9691729 9.7749958,4.193377 9.2005649,4.193377 c -1.1324218,0 -2.0192116,-0.871166 -2.0192116,-2.0833883 0,-1.21127219 0.8867898,-2.08338821 2.0192116,-2.08338821 0.5744309,0 0.9960671,0.22420412 1.2755461,0.58141068 V 0.12635232 h 0.878086 z M 6.4038407,0.12635232 V 2.6163481 c 0,0.9376672 -0.6082778,1.5684788 -1.5879049,1.5770289 C 4.3004953,4.2019272 3.7676478,4.0442243 3.3962985,3.4875141 3.1177866,3.9273721 2.6777764,4.193377 2.060795,4.193377 c -0.4303396,0 -0.8529428,-0.1244523 -1.18270871,-0.5890108 v 0.489259 H 0 V 0.12635232 H 0.88678979 V 2.3256427 c 0,0.6887627 0.38875621,1.0545194 0.98833061,1.0545194 0.5831344,0 0.8790533,-0.3733569 0.8790533,-1.0459692 V 0.12635232 H 3.6409635 V 2.3256427 c 0,0.6887627 0.4061633,1.0545194 0.9883306,1.0545194 0.6005414,0 0.8877569,-0.3733569 0.8877569,-1.0459692 V 0.12635232 Z"
           id="path191" />
      </g>
      <g
         id="g197"
         transform="matrix(1,0,0,-1,41.716216,38.743243)"
         fill="#231f20">
        <path
           d="M 0.354,0.537 V 0.434 H 0.449 C 0.47,0.434 0.488,0.439 0.5,0.447 0.513,0.455 0.52,0.469 0.52,0.486 0.52,0.503 0.513,0.516 0.5,0.524 0.488,0.533 0.47,0.537 0.449,0.537 Z M 0.45,0.609 C 0.499,0.609 0.537,0.598 0.564,0.576 0.591,0.554 0.604,0.524 0.604,0.486 0.604,0.454 0.594,0.428 0.572,0.407 0.551,0.387 0.52,0.374 0.481,0.369 L 0.607,0.224 H 0.509 L 0.392,0.368 H 0.354 V 0.224 H 0.272 V 0.609 Z M 0.425,0.092 C 0.47,0.092 0.512,0.1 0.55,0.117 0.589,0.134 0.623,0.157 0.652,0.186 0.681,0.215 0.704,0.249 0.721,0.289 0.737,0.328 0.746,0.37 0.746,0.415 0.746,0.46 0.737,0.502 0.721,0.541 0.704,0.58 0.681,0.615 0.652,0.644 0.623,0.673 0.589,0.696 0.55,0.712 0.512,0.729 0.47,0.737 0.425,0.737 0.38,0.737 0.337,0.729 0.298,0.712 0.258,0.696 0.223,0.673 0.194,0.644 0.165,0.615 0.142,0.58 0.126,0.541 0.109,0.502 0.101,0.46 0.101,0.415 0.101,0.37 0.109,0.328 0.126,0.289 0.142,0.249 0.165,0.215 0.194,0.186 0.223,0.157 0.258,0.134 0.298,0.117 0.337,0.1 0.38,0.092 0.425,0.092 m 0,0.738 C 0.484,0.83 0.538,0.819 0.589,0.797 0.641,0.776 0.685,0.746 0.724,0.708 0.762,0.671 0.792,0.627 0.814,0.576 0.836,0.526 0.847,0.472 0.847,0.415 0.847,0.358 0.836,0.304 0.814,0.254 0.792,0.204 0.762,0.16 0.724,0.123 0.685,0.085 0.641,0.055 0.589,0.033 0.538,0.011 0.484,0 0.425,0 0.365,0 0.31,0.011 0.258,0.033 0.206,0.055 0.161,0.085 0.123,0.123 0.085,0.16 0.055,0.204 0.033,0.254 0.011,0.304 0,0.358 0,0.415 0,0.472 0.011,0.526 0.033,0.576 0.055,0.627 0.085,0.671 0.123,0.708 0.161,0.746 0.206,0.776 0.258,0.797 0.31,0.819 0.365,0.83 0.425,0.83"
           id="path195" />
      </g>
    </g>
  </g>
</svg>
